Sources/FrostedUI/Resources/Icons.xcassets/monitor32.imageset/monitor-32.svg

<svg width="32" height="32" viewBox="0 0 32 32" fill="none" xmlns="http://www.w3.org/2000/svg" data-fui-icon="true">
  <path
    d="M25.667 4.25C27.5538 4.2502 29.084 5.78015 29.084 7.66699V20.333C29.084 22.2199 27.5538 23.7498 25.667 23.75H20.4795V27.667H22.25C22.664 27.6672 23 28.0029 23 28.417C22.9998 28.8309 22.6639 29.1668 22.25 29.167H9.75C9.33605 29.1668 9.00018 28.8309 9 28.417C9 28.0029 9.33594 27.6672 9.75 27.667H11.5215V23.75H6.33398C4.44702 23.75 2.91699 22.22 2.91699 20.333V7.66699C2.91699 5.78002 4.44701 4.25 6.33398 4.25H25.667ZM13.0215 27.667H18.9795V23.75H13.0215V27.667ZM4.41699 20.333C4.41699 21.3916 5.27543 22.25 6.33398 22.25H25.667C26.7254 22.2498 27.584 21.3915 27.584 20.333V19.542H4.41699V20.333ZM6.33398 5.75C5.27544 5.75 4.41699 6.60845 4.41699 7.66699V18.042H27.584V7.66699C27.584 6.60856 26.7254 5.7502 25.667 5.75H6.33398Z"
    fill="currentColor"
  />
</svg>

<svg xmlns="http://www.w3.org/2000/svg" width="32" height="32" fill="none" data-fui-icon="true" viewBox="0 0 32 32"><path fill="currentColor" d="M25.667 4.25a3.42 3.42 0 0 1 3.417 3.417v12.666a3.42 3.42 0 0 1-3.417 3.417H20.48v3.917h1.77a.75.75 0 0 1 0 1.5H9.75a.75.75 0 0 1 0-1.5h1.771V23.75H6.334a3.417 3.417 0 0 1-3.417-3.417V7.667A3.417 3.417 0 0 1 6.334 4.25zM13.021 27.667h5.959V23.75H13.02zm-8.604-7.334c0 1.059.858 1.917 1.917 1.917h19.333a1.917 1.917 0 0 0 1.917-1.917v-.791H4.417zM6.334 5.75a1.917 1.917 0 0 0-1.917 1.917v10.375h23.167V7.667a1.92 1.92 0 0 0-1.917-1.917z"/></svg>
